packages/foundations/assets/icons/functional/images/transportation/train_and_car_32.svg

<svg width="32" height="32" viewBox="0 0 32 32" fill="none" xmlns="http://www.w3.org/2000/svg">
<g clip-path="url(#clip0_187_982)">
<path fill-rule="evenodd" clip-rule="evenodd" d="M13.4866 2.00049C16.5716 2.00049 18.3586 3.07449 19.7386 4.90049C21.0186 6.59249 21.7666 8.61949 21.8936 10.7265L21.9016 11.0035C21.8996 11.5535 21.4536 11.9995 20.9036 11.9995C20.3746 11.9995 19.9526 11.5845 19.9196 11.0635C19.9196 11.0635 19.8806 10.5585 19.8496 10.3095C19.6636 8.78949 19.0786 7.33949 18.1456 6.10549C17.0776 4.69249 15.9146 4.00249 13.4886 4.00249L10.5816 3.99849C8.29256 3.99849 6.96256 4.64549 5.85956 6.10449C4.82456 7.47249 4.21756 9.10649 4.10856 10.8065L4.00956 14.4755C3.95756 16.5555 4.14656 18.7075 4.67156 20.8555C5.44656 21.2855 6.11756 21.6695 6.68556 22.0075C7.53756 22.5145 7.85256 22.7325 8.44456 23.0845C8.55056 23.1475 9.32756 23.3925 9.33056 23.3975C9.76556 23.5175 10.0986 23.9195 10.0986 24.3925C10.0986 24.9595 9.63856 25.4195 9.07156 25.4195C8.96356 25.4195 8.35756 25.2365 8.25956 25.2055C8.25156 25.2055 8.19656 25.1955 8.17556 25.1885C8.16656 25.1845 8.15856 25.1815 8.15056 25.1775C7.97856 25.1155 7.81356 25.0485 7.65856 24.9615C7.4254 24.8312 6.97566 24.5484 6.50121 24.2507L6.09296 23.9952C5.82273 23.8267 5.56233 23.6663 5.34756 23.5395C5.43356 23.9635 5.56856 24.3505 5.75156 24.7025C5.93456 25.0545 6.19156 25.4655 6.52256 25.9365C6.93456 26.5475 7.75556 26.9985 8.37556 26.9915L9.74756 26.9935C10.3026 26.9935 10.7506 27.4415 10.7506 27.9935L10.7496 28.9995C10.7496 29.5515 10.3016 29.9995 9.74956 29.9995H7.99956C7.44756 29.9995 6.99956 29.5515 6.99956 28.9995C6.99956 28.9085 7.01156 28.8205 7.03456 28.7375C6.23556 28.4545 5.52656 27.9415 5.00556 27.2535C4.48456 26.5655 4.28156 26.2495 4.00856 25.7275C3.82656 25.3795 3.62056 24.7915 3.39056 23.9625L2.83156 21.7635C2.27456 19.5665 1.99556 17.3095 2.00049 15.0455L2.09256 11.0995C2.14856 8.85949 2.90756 6.69249 4.26256 4.90049C5.59356 3.14049 7.45956 2.00049 10.5796 2.00049H13.4866ZM25.0066 13.9995C26.0686 13.9995 26.9836 14.7205 27.2946 15.7445L28.2926 19.9995H29.3516C29.6876 19.9995 29.9476 20.2275 29.9926 20.5455L29.9996 21.3105C29.9996 21.6455 29.7696 21.9415 29.4496 21.9925L29.0166 22.0005C29.0496 22.1615 29.0666 22.3285 29.0666 22.4995C29.0666 22.6135 28.9376 23.7825 28.6786 26.0075C28.6266 26.4575 28.4766 26.8755 28.2496 27.2405V28.9995C28.2496 29.5515 27.8016 29.9995 27.2496 29.9995H26.2496C25.6976 29.9995 25.2496 29.5515 25.2496 28.9995V28.7155C23.6666 28.7385 22.0826 28.7495 20.4996 28.7495C18.9166 28.7495 17.3326 28.7375 15.7496 28.7135V28.9995C15.7496 29.5515 15.3016 29.9995 14.7496 29.9995H13.7496C13.1976 29.9995 12.7496 29.5515 12.7496 28.9995V27.2425C12.5606 26.9375 12.4246 26.5965 12.3546 26.2305C12.3076 25.9865 12.1726 24.8385 11.9486 22.7865C11.9176 22.5165 11.9306 22.2525 11.9816 21.9995H11.6476C11.2776 21.9995 10.9996 21.6785 10.9996 21.3105V20.6435C10.9996 20.2745 11.2776 19.9995 11.6476 19.9995H12.7056L13.6606 15.9085C13.9066 14.8535 14.8586 13.9995 15.9416 13.9995H25.0066ZM14.3776 22.0025C14.1336 22.0305 13.9506 22.2295 13.9356 22.4665C13.9256 22.6245 13.9456 22.8245 13.9966 23.0675L15.1656 23.2635C15.7106 23.3545 16.0786 23.8695 15.9876 24.4145C15.9026 24.9205 15.4526 25.2745 14.9526 25.2495L14.2346 25.1365L14.3086 25.7795C14.3586 26.2105 14.6786 26.5555 15.0946 26.6435C17.3656 26.8795 19.1676 26.9985 20.5006 27.0005C21.8346 27.0025 23.5976 26.8895 25.7916 26.6605C26.2236 26.6205 26.5756 26.3085 26.6726 25.8945L26.7656 25.1365L26.1646 25.2365C25.6196 25.3275 25.1046 24.9595 25.0136 24.4145C24.9296 23.9085 25.2406 23.4285 25.7216 23.2895L27.0036 23.0685C27.0476 22.9085 27.0686 22.7285 27.0686 22.5285C27.0696 22.2275 26.8666 22.0075 26.5996 22.0075L24.442 22.0066C24.3799 22.0065 24.3165 22.0065 24.2518 22.0065L22.1787 22.0056C22.0899 22.0056 21.9997 22.0055 21.9083 22.0055L19.7908 22.0046C19.6807 22.0046 19.5691 22.0045 19.4563 22.0045L17.2806 22.0036C17.1517 22.0036 17.0215 22.0035 16.8899 22.0034L14.8163 22.0027L14.3776 22.0025ZM22.4996 23.3995C22.8146 23.3995 23.1086 23.5485 23.2966 23.7955L23.8616 24.7425C24.1416 25.2185 23.9826 25.8315 23.5066 26.1115C23.0646 26.3715 22.5046 26.2525 22.2026 25.8535L21.9266 25.3985H19.0716L18.8616 25.7565C18.6016 26.1985 17.9766 26.4185 17.4926 26.1115C17.0086 25.8045 16.8826 25.3045 17.0846 24.8465L17.6376 23.8925C17.7976 23.6215 18.0746 23.4425 18.3826 23.4065L22.4996 23.3995ZM7.37756 17.0025C7.86556 16.8455 8.38556 17.0825 8.59356 17.5385L8.60256 17.5655L8.78056 18.1135L9.53356 20.4345C9.70256 20.9605 9.41456 21.5245 8.88856 21.6935C8.40056 21.8505 7.88056 21.6135 7.67256 21.1575C7.67256 21.1575 7.49486 20.6102 7.29399 19.9916L7.11112 19.4284C6.91025 18.8097 6.73256 18.2625 6.73256 18.2625C6.68956 18.1295 6.67656 17.9955 6.68756 17.8665C6.72256 17.4785 6.98356 17.1295 7.37756 17.0025ZM24.9836 16.0005H15.9926C15.8496 16.0005 15.7086 16.1015 15.6376 16.2725C15.6357 16.277 15.6334 16.2834 15.6307 16.2916L15.61 16.3623C15.5167 16.7011 15.2329 17.914 14.7586 20.0005H26.2396L25.3906 16.3635C25.3456 16.1705 25.2276 16.0005 24.9836 16.0005ZM11.9996 5.99949C14.1046 5.99949 15.6896 6.43249 16.7566 7.29749C17.8236 8.16249 18.0086 9.05349 17.8996 10.0105C17.8526 10.4305 17.7206 11.2885 17.7196 11.2915C17.6446 11.8125 17.1746 12.2025 16.6436 12.1585C16.0916 12.1125 15.6816 11.6285 15.7276 11.0775C15.7306 11.0405 15.8776 10.0955 15.9126 9.78549C15.9446 9.50649 15.9326 9.22849 15.4966 8.85149C14.9046 8.33949 13.6846 8.00049 11.9996 8.00049C10.1946 8.00049 9.01256 8.35749 8.37456 8.96349C8.17856 9.14949 8.06756 9.40549 8.06156 9.65849C8.05756 9.82649 8.18456 10.5785 8.44256 11.9135C8.52456 12.2645 8.78856 12.5405 9.12356 12.6415C9.88756 12.7855 11.6476 12.9915 11.6536 12.9915C12.2106 13.0655 12.6026 13.5775 12.5276 14.1345C12.5236 14.1655 12.5186 14.1955 12.5116 14.2255C12.4016 14.7105 11.9526 15.0355 11.4546 15.0045C11.4526 15.0045 9.73856 14.8045 8.90256 14.6395C7.67356 14.3965 6.77056 13.5405 6.49556 12.3695C6.29356 11.4395 6.15656 10.6625 6.08356 10.0365C5.97356 9.09849 6.31256 8.16349 6.99756 7.51249C8.05956 6.50349 9.72756 5.99949 11.9996 5.99949Z" fill="#1A1C1F"/>
</g>
<defs>
<clipPath id="clip0_187_982">
<rect width="32" height="32" fill="white"/>
</clipPath>
</defs>
</svg>

<svg xmlns="http://www.w3.org/2000/svg" width="32" height="32" fill="none"><g clip-path="url(#a)"><path fill="#1A1C1F" fill-rule="evenodd" d="M13.487 2c3.085 0 4.872 1.074 6.252 2.9a10.73 10.73 0 0 1 2.155 5.826l.008.277a1 1 0 0 1-.998.996.99.99 0 0 1-.984-.936s-.04-.505-.07-.754a8.7 8.7 0 0 0-1.704-4.204c-1.068-1.413-2.231-2.103-4.657-2.103l-2.907-.004c-2.29 0-3.62.647-4.722 2.106a8.7 8.7 0 0 0-1.751 4.703l-.1 3.669c-.051 2.08.138 4.231.663 6.38q1.162.645 2.014 1.151c.852.508 1.167.726 1.759 1.077.106.064.883.308.886.314.435.12.768.521.768.994 0 .567-.46 1.027-1.027 1.027-.108 0-.714-.183-.812-.213a1 1 0 0 1-.084-.017l-.025-.012a3 3 0 0 1-.492-.215c-.234-.13-.683-.414-1.158-.711l-.408-.256c-.27-.168-.53-.329-.745-.456q.128.636.404 1.163.275.528.77 1.234c.413.611 1.234 1.063 1.854 1.055l1.372.003c.555 0 1.003.448 1.003 1L10.75 29a1 1 0 0 1-1 1H8a1 1 0 0 1-.965-1.262 4.4 4.4 0 0 1-2.03-1.485c-.52-.687-.723-1.003-.996-1.526q-.273-.522-.618-1.765l-.56-2.198a27 27 0 0 1-.83-6.718l.092-3.946c.056-2.24.815-4.408 2.17-6.2C5.593 3.14 7.46 2 10.58 2zm11.52 12c1.062 0 1.977.72 2.288 1.745L28.293 20h1.059a.63.63 0 0 1 .64.546l.008.765c0 .334-.23.63-.55.681l-.433.008q.05.242.05.5 0 .17-.388 3.508c-.052.45-.202.867-.43 1.233V29a1 1 0 0 1-1 1h-1a1 1 0 0 1-1-1v-.285a327 327 0 0 1-9.5-.002V29a1 1 0 0 1-1 1h-1a1 1 0 0 1-1-1v-1.758a3 3 0 0 1-.394-1.012q-.07-.366-.406-3.443a2.5 2.5 0 0 1 .033-.787h-.334c-.37 0-.648-.322-.648-.69v-.666a.63.63 0 0 1 .648-.644h1.058l.955-4.091c.246-1.056 1.198-1.91 2.28-1.91zm-10.63 8.003a.5.5 0 0 0-.441.463q-.015.238.06.601l1.17.197a1 1 0 0 1-.213 1.986l-.718-.113.074.642a1 1 0 0 0 .786.864q3.406.354 5.406.357 2 .005 5.29-.34a1 1 0 0 0 .882-.765l.093-.758-.601.1a1 1 0 0 1-.443-1.947l1.282-.221q.066-.24.065-.54c0-.302-.202-.521-.47-.521l-2.157-.001h-.19l-2.073-.001h-.27l-2.118-.001h-.335l-2.175-.001h-.391l-2.074-.001zm8.123 1.396c.315 0 .609.15.797.396l.565.947a1 1 0 0 1-1.66 1.111l-.275-.455h-2.855l-.21.358c-.26.442-.885.663-1.37.355-.483-.306-.61-.806-.407-1.265l.553-.954c.16-.27.437-.45.745-.485zM7.378 17.004a1 1 0 0 1 1.216.535l.009.027.178.548.753 2.322a1 1 0 0 1-1.861.723l-.379-1.166-.183-.564-.378-1.166a1.002 1.002 0 0 1 .645-1.26M24.984 16h-8.991c-.143 0-.284.102-.355.273l-.007.019-.021.07q-.14.51-.851 3.639h11.48l-.848-3.638c-.045-.192-.163-.363-.407-.363M12 6q3.157 0 4.757 1.297c1.067.865 1.252 1.756 1.143 2.714-.047.42-.18 1.278-.18 1.28a1.013 1.013 0 0 1-1.076.867 1 1 0 0 1-.916-1.08c.003-.037.15-.982.185-1.293.032-.279.02-.557-.416-.934-.592-.512-1.812-.85-3.497-.85-1.805 0-2.987.356-3.625.962a1 1 0 0 0-.313.695q-.006.252.38 2.256a1 1 0 0 0 .682.728c.764.144 2.524.35 2.53.35a1.017 1.017 0 0 1 .858 1.233c-.11.486-.56.81-1.057.78-.002 0-1.716-.2-2.552-.366-1.23-.242-2.132-1.098-2.407-2.27a25 25 0 0 1-.412-2.332 3 3 0 0 1 .914-2.525Q8.592 6 12 6" clip-rule="evenodd"/></g><defs><clipPath id="a"><path fill="#fff" d="M0 0h32v32H0z"/></clipPath></defs></svg>
